apps/assets/apps/cps/overview/icons/transactions.svg

<svg viewBox="0 0 158 168" xmlns="http://www.w3.org/2000/svg" xml:space="preserve" style="fill-rule:evenodd;clip-rule:evenodd;stroke-linejoin:round;stroke-miterlimit:2">
  <g id="bars">
    <path d="M49.979 108.521c0-6.516-5.291-11.807-11.807-11.807H14.558c-6.517 0-11.807 5.291-11.807 11.807v43.345c0 6.517 5.29 11.807 11.807 11.807h23.614c6.516 0 11.807-5.29 11.807-11.807v-43.345Z" style="fill:url(#_Radial1)"/>
    <path d="M104.231 64.635c0-7.348-5.965-13.313-13.313-13.313H64.292c-7.348 0-13.313 5.965-13.313 13.313v89.725c0 7.348 5.965 13.313 13.313 13.313h26.626c7.348 0 13.313-5.965 13.313-13.313V64.635Z" style="fill:url(#_Radial2)"/>
    <path d="M157.365 79.27c0-6.516-5.29-11.807-11.807-11.807h-23.614c-6.516 0-11.807 5.291-11.807 11.807v75.485c0 6.517 5.291 11.807 11.807 11.807h23.614c6.517 0 11.807-5.29 11.807-11.807V79.27Z" style="fill:url(#_Radial3)"/>
    <path d="M38.417 102.409a8.026 8.026 0 0 0-8.022-8.022H14.35a8.026 8.026 0 0 0-8.022 8.022v40.522a8.026 8.026 0 0 0 8.022 8.022h16.045a8.026 8.026 0 0 0 8.022-8.022v-40.522Z" style="fill:url(#_Linear4);stroke:#fff;stroke-width:1px"/>
    <path d="M91.203 55.1a8.026 8.026 0 0 0-8.022-8.022H67.137a8.026 8.026 0 0 0-8.022 8.022v87.831a8.025 8.025 0 0 0 8.022 8.022h16.044a8.025 8.025 0 0 0 8.022-8.022V55.1Z" style="fill:url(#_Linear5);stroke:#fff;stroke-width:1px"/>
    <path d="M145.474 70.219a8.026 8.026 0 0 0-8.022-8.022h-16.044a8.027 8.027 0 0 0-8.023 8.022v72.22a8.026 8.026 0 0 0 8.023 8.022h16.044a8.026 8.026 0 0 0 8.022-8.022v-72.22Z" style="fill:url(#_Linear6);stroke:#fff;stroke-width:1px"/>
  </g>
  <path d="m136.885 19.222 14.508-.036-1.906 15.216" style="fill:none;stroke:#03a0ae;stroke-width:8px;stroke-linecap:round;stroke-miterlimit:1.5"/>
  <path d="M4 68.99 75.913 4l53.389 37.161 17.724-18.489" style="fill:none;stroke:#03a0ae;stroke-width:8px;stroke-linecap:round;stroke-miterlimit:1.5"/>
  <defs>
    <radialGradient id="_Radial1" cx="0" cy="0" r="1" gradientUnits="userSpaceOnUse" gradientTransform="matrix(23.1947 0 0 32.8849 26.255 132.801)"><stop offset="0" style="stop-color:#013a40;stop-opacity:1"/><stop offset="1" style="stop-color:#1ac1d2;stop-opacity:0"/></radialGradient>
    <radialGradient id="_Radial2" cx="0" cy="0" r="1" gradientUnits="userSpaceOnUse" gradientTransform="matrix(26.1533 0 0 57.1424 77.481 114.029)"><stop offset="0" style="stop-color:#013a40;stop-opacity:1"/><stop offset="1" style="stop-color:#1ac1d2;stop-opacity:0"/></radialGradient>
    <radialGradient id="_Radial3" cx="0" cy="0" r="1" gradientUnits="userSpaceOnUse" gradientTransform="matrix(23.1947 0 0 48.6696 133.641 120.872)"><stop offset="0" style="stop-color:#013a40;stop-opacity:1"/><stop offset="1" style="stop-color:#1ac1d2;stop-opacity:0"/></radialGradient>
    <linearGradient id="_Linear4" x1="0" y1="0" x2="1" y2="0" gradientUnits="userSpaceOnUse" gradientTransform="matrix(0 39.7271 -22.714 0 24.72 94.387)"><stop offset="0" style="stop-color:white;stop-opacity:1"/><stop offset="1" style="stop-color:#d3edf5;stop-opacity:1"/></linearGradient>
    <linearGradient id="_Linear5" x1="0" y1="0" x2="1" y2="0" gradientUnits="userSpaceOnUse" gradientTransform="matrix(0 72.9524 -22.714 0 77.506 47.078)"><stop offset="0" style="stop-color:white;stop-opacity:1"/><stop offset="1" style="stop-color:#d3edf5;stop-opacity:1"/></linearGradient>
    <linearGradient id="_Linear6" x1="0" y1="0" x2="1" y2="0" gradientUnits="userSpaceOnUse" gradientTransform="matrix(0 61.9889 -22.714 0 131.777 62.197)"><stop offset="0" style="stop-color:white;stop-opacity:1"/><stop offset="1" style="stop-color:#d3edf5;stop-opacity:1"/></linearGradient>
  </defs>
  <style>
    #bars path {
        transform: scaleY(1);
        transition: all 0.5s ease;
        transform-origin: center 90%;
    }
    svg:hover #bars path:nth-of-type(3),
    svg:hover #bars path:nth-of-type(6) {
        transform: scaleY(0.9); 
        transition: all 0.5s ease;
    }
    svg:hover #bars path:nth-of-type(2),
    svg:hover #bars path:nth-of-type(5) {
        transform: scaleY(0.6); 
        transition: all 0.5s ease;
    }
    svg:hover #bars path:nth-of-type(1),
    svg:hover #bars path:nth-of-type(4) {
        transform: scaleY(1.4); 
        transition: all 0.5s ease;
    }
   </style>
</svg>

<?xml version="1.0" encoding="UTF-8" standalone="no"?>
<!DOCTYPE svg PUBLIC "-//W3C//DTD SVG 1.1//EN" "http://www.w3.org/Graphics/SVG/1.1/DTD/svg11.dtd">
<svg width="100%" height="100%" viewBox="0 0 156 152" version="1.1" xmlns="http://www.w3.org/2000/svg" xmlns:xlink="http://www.w3.org/1999/xlink" xml:space="preserve" xmlns:serif="http://www.serif.com/" style="fill-rule:evenodd;clip-rule:evenodd;stroke-linecap:square;stroke-linejoin:round;stroke-miterlimit:1.5;">
    <path d="M38.417,102.409C38.415,98.009 34.795,94.389 30.395,94.387L14.35,94.387C9.95,94.389 6.33,98.009 6.328,102.409L6.328,142.931C6.33,147.331 9.95,150.951 14.35,150.953L30.395,150.953C34.795,150.951 38.415,147.331 38.417,142.931L38.417,102.409Z" style="fill:url(#_Linear1);stroke:url(#_Linear2);stroke-width:1.48px;"/>
    <path d="M91.203,55.1C91.201,50.7 87.581,47.08 83.181,47.078L67.137,47.078C62.737,47.08 59.117,50.7 59.115,55.1L59.115,142.931C59.117,147.331 62.737,150.951 67.137,150.953L83.181,150.953C87.581,150.951 91.201,147.331 91.203,142.931L91.203,55.1Z" style="fill:url(#_Linear3);stroke:url(#_Linear4);stroke-width:2px;"/>
    <path d="M145.474,70.219C145.472,65.819 141.852,62.199 137.452,62.197L121.408,62.197C117.008,62.199 113.388,65.819 113.385,70.219L113.385,142.439C113.387,146.839 117.008,150.459 121.408,150.461L137.452,150.461C141.852,150.459 145.472,146.839 145.474,142.439L145.474,70.219Z" style="fill:url(#_Linear5);stroke:url(#_Linear6);stroke-width:1.84px;"/>
    <path d="M136.885,19.222L151.393,19.186L149.487,34.402" style="fill:none;stroke:rgb(21,192,208);stroke-width:8px;stroke-linecap:round;"/>
    <path d="M4,68.99L75.913,4L129.302,41.161L147.026,22.672" style="fill:none;stroke:rgb(21,192,208);stroke-width:8px;stroke-linecap:round;"/>
    <defs>
        <linearGradient id="_Linear1" x1="0" y1="0" x2="1" y2="0" gradientUnits="userSpaceOnUse" gradientTransform="matrix(-8.80529e-15,54.7551,-54.7551,-8.80529e-15,24.3062,95.0145)"><stop offset="0" style="stop-color:rgb(16,59,91);stop-opacity:1"/><stop offset="1" style="stop-color:rgb(10,36,72);stop-opacity:1"/></linearGradient>
        <linearGradient id="_Linear2" x1="0" y1="0" x2="1" y2="0" gradientUnits="userSpaceOnUse" gradientTransform="matrix(104.296,0,0,104.296,23.632,85.002)"><stop offset="0" style="stop-color:rgb(47,204,220);stop-opacity:1"/><stop offset="1" style="stop-color:rgb(47,204,220);stop-opacity:1"/></linearGradient>
        <linearGradient id="_Linear3" x1="0" y1="0" x2="1" y2="0" gradientUnits="userSpaceOnUse" gradientTransform="matrix(-1.61695e-14,100.549,-100.549,-1.61695e-14,77.0927,48.2303)"><stop offset="0" style="stop-color:rgb(16,59,91);stop-opacity:1"/><stop offset="1" style="stop-color:rgb(10,36,72);stop-opacity:1"/></linearGradient>
        <linearGradient id="_Linear4" x1="0" y1="0" x2="1" y2="0" gradientUnits="userSpaceOnUse" gradientTransform="matrix(104.296,0,0,104.296,23.632,85.002)"><stop offset="0" style="stop-color:rgb(47,204,220);stop-opacity:1"/><stop offset="1" style="stop-color:rgb(47,204,220);stop-opacity:1"/></linearGradient>
        <linearGradient id="_Linear5" x1="0" y1="0" x2="1" y2="0" gradientUnits="userSpaceOnUse" gradientTransform="matrix(5.23159e-15,85.4383,-85.4383,5.23159e-15,131.363,63.1762)"><stop offset="0" style="stop-color:rgb(16,59,91);stop-opacity:1"/><stop offset="1" style="stop-color:rgb(10,36,72);stop-opacity:1"/></linearGradient>
        <linearGradient id="_Linear6" x1="0" y1="0" x2="1" y2="0" gradientUnits="userSpaceOnUse" gradientTransform="matrix(104.296,0,0,104.296,23.632,85.002)"><stop offset="0" style="stop-color:rgb(47,204,220);stop-opacity:1"/><stop offset="1" style="stop-color:rgb(47,204,220);stop-opacity:1"/></linearGradient>
    </defs>
</svg>
